packages/kaspersky-hexa-ui-icons/src/iconsSVGs/16/Unlock2.svg

<svg width="16" height="16" viewBox="0 0 16 16" fill="none" xmlns="http://www.w3.org/2000/svg">
<path fill-rule="evenodd" clip-rule="evenodd" d="M5.01797 3.99915C5.01797 2.35153 6.35363 1.01587 8.00125 1.01587C9.37467 1.01587 10.5298 1.9434 10.8775 3.20505C10.9729 3.55113 10.7697 3.90901 10.4236 4.00439C10.0775 4.09977 9.71962 3.89654 9.62424 3.55046C9.42792 2.83814 8.77474 2.31587 8.00125 2.31587C7.0716 2.31587 6.31797 3.0695 6.31797 3.99915V5.37205H11.525C12.9609 5.37205 14.125 6.53611 14.125 7.97205V12.3999C14.125 13.8359 12.9609 14.9999 11.525 14.9999H4.475C3.03906 14.9999 1.875 13.8359 1.875 12.3999V7.97205C1.875 6.53611 3.03906 5.37205 4.475 5.37205H5.01797V3.99915ZM11.525 6.67205H4.475C3.75703 6.67205 3.175 7.25408 3.175 7.97205V12.3999C3.175 13.1179 3.75703 13.6999 4.475 13.6999H11.525C12.243 13.6999 12.825 13.1179 12.825 12.3999V7.97205C12.825 7.25408 12.243 6.67205 11.525 6.67205Z" fill="black"/>
</svg>

<svg xmlns="http://www.w3.org/2000/svg" width="16" height="16" fill="none" viewBox="0 0 16 16"><path fill="#000" fill-rule="evenodd" d="M5.018 3.9992c0-1.6477 1.3356-2.9833 2.9833-2.9833 1.3734 0 2.5285.9275 2.8762 2.1891a.65.65 0 1 1-1.2533.3455c-.1963-.7124-.8495-1.2346-1.623-1.2346-.9296 0-1.6832.7536-1.6832 1.6833V5.372h5.207c1.4359 0 2.6 1.1641 2.6 2.6V12.4c0 1.436-1.1641 2.6-2.6 2.6h-7.05c-1.436 0-2.6-1.164-2.6-2.6V7.9721c0-1.436 1.164-2.6 2.6-2.6h.543zm6.507 2.6728h-7.05c-.718 0-1.3.582-1.3 1.3V12.4c0 .718.582 1.3 1.3 1.3h7.05c.718 0 1.3-.582 1.3-1.3V7.9721c0-.718-.582-1.3-1.3-1.3"/></svg>
